**kern
*clefC3
*k[f#c#g#]
*M2/2
=1-
2c
2B#
=2
16B
2A
16A
16B
16A
4A
=3
2G-
8A
8G
16A
16r
16A
=4
4B
8c
8c-
16r
16B
4.B
=5
8c
2B
4c
(8c
=6
1B
=7
2A-
4.G)
8F
=8
1F
=9
4F
4E
2D
=10
1D
=11
*-